app/images/curve-medium.svg

<svg width="111" height="49" viewBox="0 0 111 49" fill="none" xmlns="http://www.w3.org/2000/svg">
<path d="M38.0002 4.33359L40.6302 7.87359L43.2802 4.33359H44.1202V11.4336H43.2002V5.91359L40.6402 9.35359L38.0802 5.91359V11.4336H37.1502V4.33359H38.0002ZM47.9897 11.5336C47.6031 11.5336 47.2497 11.4669 46.9297 11.3336C46.6097 11.2003 46.3364 11.0169 46.1097 10.7836C45.8831 10.5503 45.7064 10.2769 45.5797 9.96359C45.4597 9.64359 45.3997 9.30026 45.3997 8.93359C45.3997 8.56693 45.4631 8.22693 45.5897 7.91359C45.7164 7.59359 45.8931 7.31693 46.1197 7.08359C46.3531 6.85026 46.6297 6.66693 46.9497 6.53359C47.2697 6.40026 47.6197 6.33359 47.9997 6.33359C48.3264 6.33359 48.6331 6.39026 48.9197 6.50359C49.2064 6.61026 49.4564 6.77359 49.6697 6.99359C49.8897 7.20693 50.0631 7.47026 50.1897 7.78359C50.3164 8.09026 50.3797 8.44359 50.3797 8.84359C50.3797 8.89026 50.3797 8.93359 50.3797 8.97359C50.3797 9.00693 50.3764 9.05026 50.3697 9.10359H46.2697C46.2764 9.33693 46.3231 9.55359 46.4097 9.75359C46.5031 9.95359 46.6231 10.1269 46.7697 10.2736C46.9231 10.4203 47.1031 10.5369 47.3097 10.6236C47.5231 10.7036 47.7531 10.7436 47.9997 10.7436C48.3864 10.7436 48.7031 10.6669 48.9497 10.5136C49.2031 10.3536 49.4064 10.1403 49.5597 9.87359L50.2397 10.3436C50.0131 10.7103 49.7097 11.0003 49.3297 11.2136C48.9564 11.4269 48.5097 11.5336 47.9897 11.5336ZM49.4997 8.40359C49.4664 8.19693 49.4031 8.01359 49.3097 7.85359C49.2231 7.69359 49.1097 7.55693 48.9697 7.44359C48.8364 7.33026 48.6831 7.24359 48.5097 7.18359C48.3364 7.12359 48.1564 7.09359 47.9697 7.09359C47.7831 7.09359 47.5997 7.12359 47.4197 7.18359C47.2397 7.24359 47.0764 7.33026 46.9297 7.44359C46.7831 7.55026 46.6564 7.68693 46.5497 7.85359C46.4431 8.01359 46.3697 8.19693 46.3297 8.40359H49.4997ZM53.6603 11.5336C53.3069 11.5336 52.9803 11.4669 52.6803 11.3336C52.3869 11.1936 52.1303 11.0069 51.9103 10.7736C51.6903 10.5336 51.5169 10.2569 51.3903 9.94359C51.2703 9.63026 51.2103 9.29359 51.2103 8.93359C51.2103 8.57359 51.2703 8.23693 51.3903 7.92359C51.5169 7.61026 51.6903 7.33693 51.9103 7.10359C52.1303 6.86359 52.3869 6.67693 52.6803 6.54359C52.9803 6.40359 53.3069 6.33359 53.6603 6.33359C54.0403 6.33359 54.387 6.42026 54.7003 6.59359C55.0136 6.76026 55.2536 6.96359 55.4203 7.20359V3.93359H56.2803V11.4336H55.4203V10.6636C55.2536 10.9036 55.0136 11.1103 54.7003 11.2836C54.387 11.4503 54.0403 11.5336 53.6603 11.5336ZM53.7903 10.7436C54.0436 10.7436 54.2736 10.6969 54.4803 10.6036C54.6869 10.5103 54.8636 10.3836 55.0103 10.2236C55.1636 10.0569 55.2803 9.86359 55.3603 9.64359C55.447 9.42359 55.4903 9.18693 55.4903 8.93359C55.4903 8.68026 55.447 8.44359 55.3603 8.22359C55.2803 8.00359 55.1636 7.81359 55.0103 7.65359C54.8636 7.48693 54.6869 7.35693 54.4803 7.26359C54.2736 7.17026 54.0436 7.12359 53.7903 7.12359C53.537 7.12359 53.3036 7.17026 53.0903 7.26359C52.8836 7.35693 52.7036 7.48693 52.5503 7.65359C52.4036 7.81359 52.2869 8.00359 52.2003 8.22359C52.1203 8.44359 52.0803 8.68026 52.0803 8.93359C52.0803 9.18693 52.1203 9.42359 52.2003 9.64359C52.2869 9.86359 52.4036 10.0569 52.5503 10.2236C52.7036 10.3836 52.8836 10.5103 53.0903 10.6036C53.3036 10.6969 53.537 10.7436 53.7903 10.7436ZM58.3391 5.09359C58.1658 5.09359 58.0191 5.03693 57.8991 4.92359C57.7791 4.80359 57.7191 4.65693 57.7191 4.48359C57.7191 4.31693 57.7791 4.17359 57.8991 4.05359C58.0191 3.93359 58.1658 3.87359 58.3391 3.87359C58.5124 3.87359 58.6558 3.93359 58.7691 4.05359C58.8824 4.17359 58.9391 4.31693 58.9391 4.48359C58.9391 4.65693 58.8824 4.80359 58.7691 4.92359C58.6558 5.03693 58.5124 5.09359 58.3391 5.09359ZM57.8991 6.43359H58.7591V11.4336H57.8991V6.43359ZM62.1593 11.5336C61.886 11.5336 61.636 11.4869 61.4093 11.3936C61.1827 11.2936 60.9893 11.1569 60.8293 10.9836C60.6693 10.8103 60.5427 10.6003 60.4493 10.3536C60.3627 10.1003 60.3193 9.81693 60.3193 9.50359V6.43359H61.1793V9.37359C61.1793 9.79359 61.2793 10.1269 61.4793 10.3736C61.686 10.6203 61.9627 10.7436 62.3093 10.7436C62.5027 10.7436 62.6827 10.7036 62.8493 10.6236C63.0227 10.5369 63.1693 10.4169 63.2893 10.2636C63.416 10.1036 63.516 9.91026 63.5893 9.68359C63.6627 9.45693 63.6993 9.20026 63.6993 8.91359V6.43359H64.5593V11.4336H63.6993V10.6636C63.5327 10.9569 63.3127 11.1769 63.0393 11.3236C62.7727 11.4636 62.4793 11.5336 62.1593 11.5336ZM72.6204 8.49359C72.6204 8.08693 72.537 7.75693 72.3704 7.50359C72.2037 7.25026 71.957 7.12359 71.6304 7.12359C71.2304 7.12359 70.9037 7.28026 70.6504 7.59359C70.4037 7.90693 70.2737 8.33359 70.2604 8.87359V11.4336H69.4004V8.49359C69.4004 8.08693 69.317 7.75693 69.1504 7.50359C68.9904 7.25026 68.747 7.12359 68.4204 7.12359C68.0137 7.12359 67.6804 7.28693 67.4204 7.61359C67.167 7.94026 67.0404 8.38693 67.0404 8.95359V11.4336H66.1804V6.43359H67.0404V7.20359C67.187 6.93693 67.3904 6.72693 67.6504 6.57359C67.9104 6.41359 68.2104 6.33359 68.5504 6.33359C68.9237 6.33359 69.2404 6.43026 69.5004 6.62359C69.767 6.81026 69.9637 7.07026 70.0904 7.40359C70.2237 7.07693 70.4337 6.81693 70.7204 6.62359C71.0137 6.43026 71.3504 6.33359 71.7304 6.33359C72.0037 6.33359 72.247 6.38359 72.4604 6.48359C72.6804 6.57693 72.8637 6.71359 73.0104 6.89359C73.1637 7.06693 73.2804 7.28026 73.3604 7.53359C73.4404 7.78026 73.4804 8.05693 73.4804 8.36359V11.4336H72.6204V8.49359Z" fill="#037DD6"/>
<path opacity="0.3" d="M19.5064 40.5664C8.74256 47.9864 0.0898438 48.5664 0.0898438 48.5664H110.34C110.34 48.5664 101.687 47.9864 90.9234 40.5664C80.1596 33.1464 67.5597 18.5664 55.2149 18.5664C42.8701 18.5664 30.2702 33.1464 19.5064 40.5664Z" fill="#037DD6"/>
<mask id="mask0_610_6266" style="mask-type:alpha" maskUnits="userSpaceOnUse" x="0" y="18" width="111" height="31">
<path d="M19.5064 40.4336C8.74256 47.8536 0.0898438 48.4336 0.0898438 48.4336H110.34C110.34 48.4336 101.687 47.8536 90.9234 40.4336C80.1596 33.0136 67.5597 18.4336 55.2149 18.4336C42.8701 18.4336 30.2702 33.0136 19.5064 40.4336Z" fill="#EAF6FF"/>
</mask>
<g mask="url(#mask0_610_6266)">
<rect x="36.0469" y="12.6191" width="37.3435" height="39.25" fill="#037DD6" stroke="white" stroke-width="2"/>
</g>
</svg>

<svg width="111" height="49" fill="none" xmlns="http://www.w3.org/2000/svg"><path d="m38 4.334 2.63 3.54 2.65-3.54h.84v7.1h-.92v-5.52l-2.56 3.44-2.56-3.44v5.52h-.93v-7.1H38Zm9.99 7.2a2.73 2.73 0 0 1-1.06-.2 2.431 2.431 0 0 1-1.35-1.37 2.91 2.91 0 0 1-.18-1.03c0-.367.063-.707.19-1.02.126-.32.303-.597.53-.83.233-.234.51-.417.83-.55.32-.134.67-.2 1.05-.2.326 0 .633.056.92.17.286.106.536.27.75.49.22.213.393.476.52.79.126.306.19.66.19 1.06v.13c0 .033-.004.076-.01.13h-4.1c.006.233.053.45.14.65.093.2.213.373.36.52.153.146.333.263.54.35.213.08.443.12.69.12.386 0 .703-.077.95-.23.253-.16.456-.374.61-.64l.68.47c-.227.366-.53.656-.91.87-.374.213-.82.32-1.34.32Zm1.51-3.13a1.579 1.579 0 0 0-.19-.55c-.087-.16-.2-.297-.34-.41a1.419 1.419 0 0 0-.46-.26 1.639 1.639 0 0 0-.54-.09 1.729 1.729 0 0 0-1.04.35 1.5 1.5 0 0 0-.38.41c-.107.16-.18.343-.22.55h3.17Zm4.16 3.13c-.353 0-.68-.067-.98-.2a2.57 2.57 0 0 1-.77-.56 2.73 2.73 0 0 1-.52-.83 2.8 2.8 0 0 1-.18-1.01c0-.36.06-.697.18-1.01.127-.314.3-.587.52-.82a2.359 2.359 0 0 1 1.75-.77c.38 0 .727.086 1.04.26.314.166.554.37.72.61v-3.27h.86v7.5h-.86v-.77a2.08 2.08 0 0 1-.72.62 2.18 2.18 0 0 1-1.04.25Zm.13-.79a1.607 1.607 0 0 0 1.22-.52c.154-.167.27-.36.35-.58.087-.22.13-.457.13-.71 0-.254-.043-.49-.13-.71-.08-.22-.196-.41-.35-.57a1.544 1.544 0 0 0-.53-.39 1.658 1.658 0 0 0-.69-.14c-.253 0-.486.046-.7.14a1.648 1.648 0 0 0-.54.39 1.82 1.82 0 0 0-.35.57c-.08.22-.12.456-.12.71 0 .253.04.49.12.71.087.22.204.413.35.58.154.16.334.286.54.38.214.093.447.14.7.14Zm4.55-5.65a.599.599 0 0 1-.62-.61c0-.167.06-.31.18-.43s.266-.18.44-.18c.172 0 .316.06.43.18.112.12.17.263.17.43 0 .173-.058.32-.17.44a.583.583 0 0 1-.43.17Zm-.44 1.34h.86v5h-.86v-5Zm4.26 5.1c-.274 0-.524-.047-.75-.14-.227-.1-.42-.237-.58-.41a1.917 1.917 0 0 1-.38-.63 2.617 2.617 0 0 1-.13-.85v-3.07h.86v2.94c0 .42.1.753.3 1 .206.246.483.37.83.37.193 0 .373-.04.54-.12.173-.087.32-.207.44-.36.126-.16.226-.354.3-.58.073-.227.11-.484.11-.77v-2.48h.86v5h-.86v-.77a1.654 1.654 0 0 1-.66.66c-.267.14-.56.21-.88.21Zm10.46-3.04c0-.407-.083-.737-.25-.99-.166-.254-.413-.38-.74-.38-.4 0-.726.156-.98.47-.246.313-.376.74-.39 1.28v2.56h-.86v-2.94c0-.407-.083-.737-.25-.99-.16-.254-.403-.38-.73-.38-.406 0-.74.163-1 .49-.253.326-.38.773-.38 1.34v2.48h-.86v-5h.86v.77a1.63 1.63 0 0 1 .61-.63c.26-.16.56-.24.9-.24.374 0 .69.096.95.29.267.186.464.446.59.78.134-.327.344-.587.63-.78.294-.194.63-.29 1.01-.29.274 0 .517.05.73.15.22.093.404.23.55.41.154.173.27.386.35.64.08.246.12.523.12.83v3.07h-.86v-2.94Z" fill="#037DD6"/><path opacity=".3" d="M19.506 40.566c-10.763 7.42-19.416 8-19.416 8h110.25s-8.653-.58-19.417-8c-10.763-7.42-23.363-22-35.708-22-12.345 0-24.945 14.58-35.709 22Z" fill="#037DD6"/><mask id="a" style="mask-type:alpha" maskUnits="userSpaceOnUse" x="0" y="18" width="111" height="31"><path d="M19.506 40.434c-10.763 7.42-19.416 8-19.416 8h110.25s-8.653-.58-19.417-8c-10.763-7.42-23.363-22-35.708-22-12.345 0-24.945 14.58-35.709 22Z" fill="#EAF6FF"/></mask><g mask="url(#a)"><path fill="#037DD6" stroke="#fff" stroke-width="2" d="M36.047 12.619H73.39v39.25H36.047z"/></g></svg>
